X: 1
T: The Dusty Miller
R: slip jig
M: 9/8
L: 1/8
K: Dmaj
|: A3 A2G A2G | A3 A2G B2d | A3 A2G A2G |1 BBB B2A B2d :|2 B2G G2A B2d ||
|: A2D DDD A3 | A2D DDD B2d | A2D DDD G2A |1 B2G G2A B2d :|2 BBB B2A B2d ||


Tune 4323	Setting 17022

